X:1
T:Over the Hills and Far Away
M:4/4
L:1/4
K:C
C/2-D/2E/2-D/2C/2-D/2E/2-D/2| C A, A,3/2 z/4 A,/4|C/2-D/2E/2-D/2C/2-D/2E/2-C/2|\
 F D D2|C/2-D/2E/2-D/2C/2-D/2E/2-D/2| C A, F3/2 z/4 A,/4| A,G,/2-F,/2 G, E|\
 F D D3/2 z/4 G/4| G3/2 F/2 E D| C A, A,2| G3/2 F/2 ED/2-E/2| F D D2|\
 G3/2 F/2 E D| C A, F3/2 z/4 A,/4-| A, G,/2 F,/2 G, E| F D D2|
